X:1
T:Title
%%score ( 1 2 ) { ( 3 6 ) | ( 4 5 ) }
L:1/8
M:6/8
K:C
V:1 treble nm="Akkordion"
V:2 treble 
V:3 treble nm="Grand Piano"
V:6 treble 
V:4 bass 
V:5 bass 
V:1
 z6[Q:1/4=78] | z6 | z6 | z6 | z6 |[M:1/8] G |[M:3/4] [Ec][Ec] [Ec][Ec] [Ec][Ec] | %7
 [GB]2 [FA] [FA]2 [FA] | z2 z G z2 | C2- [CF] [CE]2 [EG]/[EG]/ | [FA]2 [FA][FA] [GB][Ac] | %11
 [Ec]2 [CE] [EG]2 [FA] | [EG][DF] [CE][B,D] [CE][DF] | [CE]3 [EG]2 [Ec] | %14
 [Ec][DB] [CA][E^G] [EG][DG] | [CA]2 [CA][CE] [CE][CE] | [D^F][EG] [FA]A d[Ac] | [GB]3 [FA]2 [FG] | %18
 [Ec][Ec] [Ec] [Ec]2 [Ec] | [GB]2 [FA] [FA]2 [FA] | [EG][EG] [Ec] [Fd]2 [Ge] |[M:5/8] [Fd]3 [Ec]2 | %22
[M:1/8] z |[M:3/4] z6 | z6 | z6 | z6 | z6 | z6 | z6 |[M:5/8] z5 |] %31
V:2
 x6 | x6 | x6 | x6 | x6 |[M:1/8] x |[M:3/4] x6 | x6 | [EG][EG] [EG]F- [FA][B,G] | E2 z2 z2 | x6 | %11
 x6 | x6 | x6 | x6 | x6 | z2 z .^F3 | x6 | x6 | x6 | x6 |[M:5/8] x5 |[M:1/8] x |[M:3/4] x6 | x6 | %25
 x6 | x6 | x6 | x6 | x6 |[M:5/8] x5 |] %31
V:3
 z3 z2 G | [Ec][Ec][Ec] [Ec][Ec][Ec] | [GB]2 [FA] [FA]2 [FA] | [EG][EG][EG] GAG | .E3 z3 | %5
[M:1/8] z |[M:3/4][K:bass] C,6 | z[K:treble] F Ad AF | z E .G2 FG | z E Gc GE | z F Ad AF | %11
 z E[K:treble] Gc GA | [EG]F ED EF | z E[K:treble] AG EC | z E[K:treble] cE ^GB | z E ce cA | %16
 z D[K:treble] Ad ^FA | z F Gd BG | z E[K:treble] Gc GE | z F Ad AF | z E GF GB, |[M:5/8] z FG c2 | %22
[M:1/8] [EG] |[M:3/4] [EG][EG] [EG][EG] [EG][EG] | [FA]2 [Ac] [Ac]2 A | GF E[B,D] [CE][DF] | %26
 [CE]3 [EG]2 [EG] | AA AA AB | c2 z .e3 | fe d[^FA] [FB][Fc] |[M:5/8] [Fd]3 [Ec]2 |] %31
V:4
 z3 z2 E | z E,G, CG,E, | z F,A, DA,F, | z E,G, z D,[G,B,F] | C2- [A,C][K:treble] [G,C]3 | %5
[M:1/8] z |[M:3/4] z E Gc GE | F,,6 | z C z2 .B,2 | C,6 | F,,6 | z6 | z D CB, CD | z6 | z6 | A,,6 | %16
 z2 z C3 | G,6 | z6 | F,,6 | z2 z [B,D] z2 |[M:5/8] z z2 E2 |[M:1/8] [C,C] | %23
[M:3/4] [C,C][C,C] [C,C][C,C] [C,C][C,C] | [F,C]2 [F,F] [F,F]2 [F,CF] | %25
 [G,CE][G,D] [G,C] [G,,G,]2 [G,,G,] | [C,G,]3 [C,C]2 [C,C] | %27
 [F,CF][F,CF] [F,CF][F,F] [F,EF][G,DF] | z2 z c z2 | [DA][DG] [DF][K:bass][D,C] [D,B,][D,A,] | %30
[M:5/8] [G,B,]3 [C,G,]2 |] %31
V:5
 x6 | C,6 | F,,6 | G,,3 G,,3 | C,6[K:treble] |[M:1/8] x |[M:3/4] x6 | x6 | G,,6 | x6 | x6 | x6 | %12
 [G,,G,]6 | x6 | x6 | x6 | x6 | x6 | x6 | x6 | G,,6 |[M:5/8] C,-C,- C,3 |[M:1/8] x |[M:3/4] x6 | %24
 x6 | x6 | x6 | x6 | .[A,CE]2 [G,F] [CE]2 [^CEA] | x3[K:bass] x3 |[M:5/8] x5 |] %31
V:6
 x6 | x6 | x6 | z3 .[B,F]3 | z G,F E3 |[M:1/8] x |[M:3/4][K:bass] x6 | F,6[K:treble] | G,6 | G,6 | %10
 F,6 | C,6[K:treble] | x6 | C,6[K:treble] | E,6[K:treble] | A,6 | D,6[K:treble] | B,6 | %18
 C,6[K:treble] | F,6 | G,6 |[M:5/8] G,-G,- G,3 |[M:1/8] x |[M:3/4] x6 | x6 | x6 | x6 | x6 | %28
 z A .[Bd]2 Be | x6 |[M:5/8] x5 |] %31

